X:1
T:Piece No.2
C:6.005 Staff
M:4/4
L:1/4
Q:1/4=200
K:C
V: upper
e/2 e/2 z/2 e/2 z/2 c/2 e | g z3 | z4 | z4 | z4 | z4 |]
V: middle 
z4 | B z3 | c3/2 G/2 z E | E/2 A B _B/2 A | (3Geg a f/2 g/2 | z/2 e c/2 d/2 B3/4 z3/4 |]
V: lower 2
^F/2 F/2 z/2 F/2 z/2 F/2 F | G z G z | z4 | z4 | z4 | z4 |]
